X: 0138
T: Rosnor Abbey - 8x40J
P: Cecil McCausland
C: Nan Main
B: Miss Milligan's Miscellany v.1 #38
B: Originally Ours v.1 p.178 #MMM-0138
Z: 2019 John Chambers <jc:trillian.mit.edu>
M: 6/8
L: 1/8
R: jig
K: G
%
|: d |\
"G"gfg "D/G"d2g | "C"e2c "C#/A7"A3 | "A7"a^ga e2a | "D"f2d cdc |\
"G"B2g gdB | "Am"c2a aec | "F#/D7"d2c' c'af |1 "G"g3 d2 :|2 "G"g3 g2 ||
f |\
"C"efg gc'g | "Dm"f3 f2f/e/ | "G7"def fbf | "C"e3 e2e/d/ |\
"C"cde eae | "Dm"def "G"gab | "C"c'd'e' "E/C"e'd'c' | "G"d'e'd' "B/G7"g2 ||
|: f |\
"C"efg gc'g | "Dm"f3 f2f/e/ | "G7"def fbf | "C"e3 e2e/d/ |\
"C"cde "E/C"fga | "Dm"def "A/Dm"gab | "G"gab f'd'b |1 "C"c'3 "G7"g2f :|2 "C"c'3 c'2 |]
